X: 22
T:Double branle
M:C|
L:1/4
R:Branle
B:Thoinot Arbeau : Orchesographie, 1589
Z:Steve Mansfield March 2001
K:GDor
GG BB | AG FF | Bc dB | cc BB |
GG BB | AG FF | BB AG | GF GG ||
<end>
<start>
